src/assets/images/arrow-down-blue.svg

<svg fill="none" height="10" viewBox="0 0 9 10" width="9" xmlns="http://www.w3.org/2000/svg"><path d="m5.2981-.00000017-1.05769-.00000004v7.91103021h-.07555l-2.90863-2.97873-.717716.73501 4.230746 4.33269 4.23074-4.33269-.71772-.73501-2.90863 2.97873h-.07555z" fill="#2f80ed"/></svg>

<svg width="9" height="10" viewBox="0 0 9 10" fill="none" xmlns="http://www.w3.org/2000/svg">
    <path d="M5.2981 -1.65714e-07L4.24041 -2.13061e-07L4.24041 7.91103L4.16486 7.91103L1.25623 4.9323L0.538514 5.66731L4.76926 10L9 5.66731L8.28228 4.9323L5.37365 7.91103L5.2981 7.91103L5.2981 -1.65714e-07Z" fill="#2F80ED"/>
</svg>
